!!!OTL: 22. Gott sei mit dir, mein Sachsenland!
!!!COM: Jul. Otto
!!!ODT: 1841
!!!ARE: Europa, Mitteleuropa, Deutschland, Sachsen
!!!SCT: B0022
!!!TXL: @@DE
!!!YEM: Copyright 1995, estate of Helmut Schaffrath.
**kern	**text
*ICvox	*
*Ivox	*
*M4/4	*
*met(c)	*
*k[b-e-]	*
*B-:	*
!LO:TX:a:t=Kräftig.	!
{16f	Gott
8.b-	ſei
16cc	mit
=1	=1
4.dd	dir,
8dd	mein
8.ccL	Sach-
16b-J	.
8.ccL	-ſen-
16ddJ	.
=2	=2
2b-	-land,
4r}	.
{4dd	blüh
=3	=3
8.ccL	frei
16ffJ	.
8.eenL	und
16ddJ	.
8.ccL	fröh-
16b-J	.
8.gL	-lich
16aJ	.
=4	=4
2f	fort!
8.r}	.
{16g	Ein
8.cc	frommes
16dd	.
=5	=5
4.ee-	Herʒ
8ee-	und
8.ddL	fleiß'-
16ccJ	.
8.ddL	-ge
16ee-J	.
=6	=6
2cc	Hand,
8.r}	.
{16ee-	das
8.dd	ſei
16cc	dein
=7	=7
2b-	Lo-
2dd	-ſungs-
=8	=8
2cc	-wort!
4r}	.
=||	=||
{4f	Hell
=9	=9
4.cc	leuch-
8b-	-tet
8.a	dei-
16b-	-ner
8.cc	Tu-
16dd	-gend
=10	=10
2ee-	Glanʒ,
8.r}	.
{16f	du
8.f	ed-
16f	-le
=11	=11
4.dd	Perl'
8cc	im
8.b-L	deut-
16ccJ	.
8.ddL	-ſchen
16ee-J	.
=12	=12
2cc	Kranʒ!
8.r}	.
{16f	Glück
8.d	auf,
16f	Glück
=13	=13
2b-	auf,
8.r	.
16b-	Glück
8.f	auf,
16b-	Glück
=14	=14
2dd	auf,
8.r}	.
{16f	Glück
8.b-	auf,
16dd	Glück
=15	=15
4.ff	auf,
8dd	mein
8.ffL	Sach-
16ee-J	.
8.ddL	-ſen-
16ccJ	.
=16	=16
2b-	-land.
4r}	.
{4f	Hell
=17	=17
4.cc	leuch-
8b-	-tet
8.a	dei-
16b-	-ner
8.cc	Tu-
16dd	-gend
=18	=18
2ee-	Glanʒ,
8.r}	.
{16f	du
8.f	ed-
16f	-le
=19	=19
4.dd	Perl'
8cc	im
8.b-L	deut-
16ccJ	.
8.ddL	-ſchen
16ee-J	.
=20	=20
2cc	Kranʒ!
8.r}	.
{16f	Glück
8.d	auf,
16f	Glück
=21	=21
2b-	auf,
8.r	.
16b-	Glück
8.f	auf,
16b-	Glück
=22	=22
2dd	auf,
8.r}	.
{16f	Glück
8.b-	auf,
16dd	Glück
=23	=23
4.ff	auf,
8dd	mein
8.ffL	Sach-
16ee-J	.
8.ddL	-ſen-
16ccJ	.
=24	=24
2b-	-land.
8.r}	.
==	==
!!!AGN: politisch, national, Vaterlands - Lied
!!!GTL: Vaterlandslieder und Heimathgrֳüße
!!!ONB: ESAC (Essen Associative Code) Database: BOEHME
!!!AMT: simple quadruple
!!!AIN: vox
!!!EED: Helmut Schaffrath
!!!EEV: 1.0
!!Text: Max Hallbauer
!!!URL-scan: https://archive.org/details/BoehmeVtLieder1895/page/n43/mode/2up
!!!ENC: Anna Maria Matuszewska
!!!EEV: 2024/13/06
*-	*-
